X: 1736
T: Balfe's Hornpipe   #2
R: hornpipe, reel
%S: s:w b:11(5+6)
B: O'Neill's 1850 #1736
O: Early
Z: Bob Safranek, rjs@gsp.org
Z: A.LEE WORMAN
M: C|
L: 1/8
K: G
(3(DEF) |:\
G>AF>G (3EDC (3DCB, | C2 (B<e) (B<e)d>c | (3Bdc (3BAG (3AcB (3AGF |\
[1 (3GBd (3gfe (3ded (3cBA :|2 G2 B2 G2 :|
|: (3(DEF) |\
G>B (3def g>fg>f | e>de>f \
[1,3 e>cA>G | F>GA>B c>Bc>e | d>^cd>e d2 :|\
[2,4 e2 d>c | (3Bdc (3BAG (3AcB (3AGF | G2 B2 G2 :|
